X:1
T:Title
%%score ( 1 2 ) ( 3 4 )
L:1/8
Q:1/4=85
M:2/4
K:Bb
V:1 treble nm="Grand Piano, Soprano"
V:2 treble 
V:3 bass nm="Choir Pad, Onward Roll the Ages"
V:4 bass 
V:1
 [DB]>[DB] [DB][DB] | [Fc]2 [Fc]2 | [Fc]>[Fc] [FB][Fc] | [Fd]4 | [Fd]>[Fd] [Fd][Fd] | [Ge]2 [Fd]2 | %6
w: By~James~Ramsey~Murray * * *||||||
 [=Ec]>[EB] [EA][EB] | [Fc]4 | [DB]>[DB] [DB][DB] | [Fc]2 [Fc]2 | [Fc]>[Fc] [FB][Fc] | [Fd]4 | %12
w: ||||||
 [DB]>[DB] [Ec][Fd] | [Ge]2 [Fd]2 | F>F [=EG][_EA] | [DB]4 | [Fc]>[Fc] [=Ec][Ec] | [Fc]2 [Fc]2 | %18
w: ||||||
 [^Fd]>[Fd] [Gd][Gd] | [^Fd]4 | [GB]>[GB] [Gc][Gd] | e2 z2 | F>F [=EG][_EA] | [DB]4- | [DB]4 |] %25
w: |||||||
V:2
 x4 | x4 | x4 | x4 | x4 | x4 | x4 | x4 | x4 | x4 | x4 | x4 | x4 | x4 | x4 | x4 | x4 | x4 | x4 | %19
 x4 | x4 | GF [Fd]2 | x4 | x4 | x4 |] %25
V:3
 [B,,F,]>[B,,F,] [B,,F,][B,,B,] | [F,A,]2 [F,A,]2 | [F,A,]>[F,A,] [F,G,][F,A,] | [B,,B,]4 | %4
 [B,,B,]>[B,,B,] [B,,B,][B,,B,] | [B,,B,]2 [B,,B,]2 | [C,G,]>[C,C] [C,C][C,C] | [F,A,]4 | %8
 [B,,F,]>[B,,F,] [B,,F,][B,,B,] | [F,A,]2 [F,A,]2 | [F,A,]>[F,A,] [F,G,][F,A,] | [B,,B,]4 | %12
 [B,,F,]>[B,,F,] [B,,F,][B,,B,] | [B,,B,]2 [B,,B,]2 | [D,B,]>[D,B,] [C,C][F,C] | [B,,B,]4 | %16
 [F,A,]>[F,A,] [C,G,][C,G,] | [F,A,]2 [F,A,]2 | [D,A,]>[D,A,] [G,B,][G,B,] | [D,A,]4 | %20
 [G,B,]>[F,B,] [E,B,][D,B,] | G,A, [B,,B,]2 | [D,B,]>[D,B,] [C,C][F,C] | [B,,B,]4- | [B,,B,]4 |] %25
V:4
 x4 | x4 | x4 | x4 | x4 | x4 | x4 | x4 | x4 | x4 | x4 | x4 | x4 | x4 | x4 | x4 | x4 | x4 | x4 | %19
 x4 | x4 | C,2 z2 | x4 | x4 | x4 |] %25

